icons/global-line.svg

<svg viewBox="0 0 24 24" fill="currentColor" xmlns="http://www.w3.org/2000/svg"><path d="M12 22C6.47715 22 2 17.5228 2 12C2 6.47715 6.47715 2 12 2C17.5228 2 22 6.47715 22 12C22 17.5228 17.5228 22 12 22ZM9.71002 19.6674C8.74743 17.6259 8.15732 15.3742 8.02731 13H4.06189C4.458 16.1765 6.71639 18.7747 9.71002 19.6674ZM10.0307 13C10.1811 15.4388 10.8778 17.7297 12 19.752C13.1222 17.7297 13.8189 15.4388 13.9693 13H10.0307ZM19.9381 13H15.9727C15.8427 15.3742 15.2526 17.6259 14.29 19.6674C17.2836 18.7747 19.542 16.1765 19.9381 13ZM4.06189 11H8.02731C8.15732 8.62577 8.74743 6.37407 9.71002 4.33256C6.71639 5.22533 4.458 7.8235 4.06189 11ZM10.0307 11H13.9693C13.8189 8.56122 13.1222 6.27025 12 4.24799C10.8778 6.27025 10.1811 8.56122 10.0307 11ZM14.29 4.33256C15.2526 6.37407 15.8427 8.62577 15.9727 11H19.9381C19.542 7.8235 17.2836 5.22533 14.29 4.33256Z"/></svg>

<svg xmlns="http://www.w3.org/2000/svg" viewBox="0 0 24 24">
    <g>
        <path fill="none" d="M0 0h24v24H0z"/>
        <path d="M12 22C6.477 22 2 17.523 2 12S6.477 2 12 2s10 4.477 10 10-4.477 10-10 10zm-2.29-2.333A17.9 17.9 0 0 1 8.027 13H4.062a8.008 8.008 0 0 0 5.648 6.667zM10.03 13c.151 2.439.848 4.73 1.97 6.752A15.905 15.905 0 0 0 13.97 13h-3.94zm9.908 0h-3.965a17.9 17.9 0 0 1-1.683 6.667A8.008 8.008 0 0 0 19.938 13zM4.062 11h3.965A17.9 17.9 0 0 1 9.71 4.333 8.008 8.008 0 0 0 4.062 11zm5.969 0h3.938A15.905 15.905 0 0 0 12 4.248 15.905 15.905 0 0 0 10.03 11zm4.259-6.667A17.9 17.9 0 0 1 15.973 11h3.965a8.008 8.008 0 0 0-5.648-6.667z"/>
    </g>
</svg>
